X:0411
T:Romance.
M:2/4
L:1/8
Q:1/4=100
N bars 13 and 21 are |f2ed| marked "Bis" with a line of dots against the right barline
I: :| ||
Z:Jack Campin * www.campin.me.uk * 2009
K:G
d2BB|   B3 G| AAAB         |  (d>c).Bz |\
g2fa|   g2fa| gdcB         |   B2   Az:|
A2Ac|{c}B3 d|(dA).A.c      |{c}B3    d |\
f2ed|   f2ed| g>d =f/e/d/c/|   B2   A2 |G4 |
A2Ac|{c}B3 d|(dA).A.B      |{c}B3    d |\
f2ed|   f2ed| gd  =f/e/d/c/|   B2   A2 |G4|]

